X: 4300
T: Bodhran Bob's
R: jig
M: 6/8
K: Gmajor
G2 A|:{d}BGD B,CD|GAB {d}c{B}cA|Bcd ecA|
{d}ABG FED|{d}BGD B,CD|GAB {d}c{B}cA|
Bcd ecA|1 {d}AGF G2A:|2 {d}AGF G2D|:
{A}GBd edB|{A}GBd {d}c{B}cA|Bcd ecA|
{d}ABG FED|{A}GBd edB|{A}GBd {d}c{B}cA|
Bcd ecA|1 {d}AGF G2D:|2 {d}AGF G3||

